; generated by Slic3r 0.9.10b on 2013-11-09 at 04:36:15

; layer_height = 0.4
; perimeters = 2
; top_solid_layers = 3
; bottom_solid_layers = 3
; fill_density = 0.2
; perimeter_speed = 30
; infill_speed = 60
; travel_speed = 130
; nozzle_diameter = 0.5
; filament_diameter = 3
; extrusion_multiplier = 1
; perimeters extrusion width = 0.53mm
; infill extrusion width = 0.53mm
; solid infill extrusion width = 0.53mm
; top infill extrusion width = 0.53mm
; first layer extrusion width = 0.60mm

G21 ; set units to millimeters
M190 S125; heat up bed
M109 S230; heat up nozzle
G92 E0; gregor: reset extruder
G28 ; home all axes
G90 ; use absolute coordinates
G92 E0
M82 ; use absolute distances for extrusion
G1 F1500.000 E-0.80000
G92 E0
G1 Z0.000 F7800.000
G1 X91.750 Y61.708
G1 F1500.000 E0.80000
G1 X92.300 Y61.258 F1440.000 E0.82327
G1 X97.120 Y57.758 E1.01828
G1 X97.660 Y57.408 E1.03935
G1 X98.230 Y57.118 E1.06028
G1 X103.680 Y54.688 E1.25564
G1 X104.290 Y54.448 E1.27710
G1 X104.920 Y54.288 E1.29838
G1 X110.750 Y53.058 E1.49345
G1 X111.380 Y52.958 E1.51434
G1 X112.020 Y52.918 E1.53533
G1 X117.970 Y52.918 E1.73012
G1 X118.610 Y52.958 E1.75112
G1 X119.240 Y53.058 E1.77200
G1 X125.070 Y54.288 E1.96707
G1 X125.700 Y54.448 E1.98835
G1 X126.310 Y54.688 E2.00981
G1 X131.710 Y57.098 E2.20341
G1 X132.270 Y57.388 E2.22405
G1 X132.810 Y57.728 E2.24494
G1 X137.680 Y61.248 E2.44167
G1 X138.190 Y61.658 E2.46309
G1 X138.650 Y62.128 E2.48462
G1 X142.630 Y66.558 E2.67959
G1 X143.030 Y67.048 E2.70030
G1 X143.380 Y67.588 E2.72136
G1 X146.360 Y72.748 E2.91644
G1 X146.650 Y73.318 E2.93738
G1 X146.880 Y73.918 E2.95842
G1 X148.710 Y79.538 E3.15192
G1 X148.880 Y80.168 E3.17328
G1 X148.980 Y80.798 E3.19417
G1 X149.610 Y86.768 E3.39070
G1 X149.650 Y87.418 E3.41202
G1 X149.610 Y88.058 E3.43301
G1 X148.990 Y93.978 E3.62789
G1 X148.890 Y94.618 E3.64909
G1 X148.730 Y95.238 E3.67006
G1 X146.890 Y100.908 E3.86521
G1 X146.660 Y101.508 E3.88625
G1 X146.360 Y102.088 E3.90763
G1 X143.380 Y107.248 E4.10271
G1 X143.030 Y107.788 E4.12378
G1 X142.630 Y108.278 E4.14449
G1 X138.650 Y112.708 E4.33945
G1 X138.190 Y113.178 E4.36098
G1 X137.680 Y113.588 E4.38241
G1 X132.810 Y117.108 E4.57913
G1 X132.270 Y117.458 E4.60020
G1 X131.700 Y117.748 E4.62114
G1 X126.300 Y120.148 E4.81460
G1 X125.700 Y120.378 E4.83564
G1 X125.080 Y120.538 E4.85660
G1 X119.250 Y121.778 E5.05173
G1 X118.300 Y121.908 E5.08313
G1 X115.000 Y122.078 E5.19131
G1 X49.560 Y122.078 E7.33372
G1 X48.190 Y121.918 E7.37888
G1 X46.890 Y121.468 E7.42392
G1 X45.720 Y120.728 E7.46924
G1 X44.750 Y119.758 E7.51415
G1 X44.010 Y118.588 E7.55948
G1 X43.560 Y117.288 E7.60451
G1 X43.400 Y115.918 E7.64967
G1 X43.400 Y108.918 E7.87884
G1 X43.530 Y107.658 E7.92031
G1 X43.920 Y106.448 E7.96193
G1 X44.550 Y105.338 E8.00372
G1 X45.390 Y104.388 E8.04523
G1 X91.686 Y61.767 E10.10540
G1 X92.140 Y62.138 F7800.000
G1 X92.640 Y61.728 F1440.000 E10.12657
G1 X97.460 Y58.228 E10.32159
G1 X97.950 Y57.908 E10.34075
G1 X98.470 Y57.638 E10.35993
G1 X103.920 Y55.208 E10.55529
G1 X104.470 Y54.998 E10.57456
G1 X105.040 Y54.848 E10.59386
G1 X110.870 Y53.618 E10.78892
G1 X111.440 Y53.528 E10.80782
G1 X112.020 Y53.498 E10.82683
G1 X117.970 Y53.498 E11.02163
G1 X118.550 Y53.528 E11.04064
G1 X119.120 Y53.618 E11.05953
G1 X124.950 Y54.848 E11.25460
G1 X125.520 Y54.998 E11.27390
G1 X126.070 Y55.218 E11.29329
G1 X131.470 Y57.628 E11.48689
G1 X131.990 Y57.888 E11.50592
G1 X132.470 Y58.198 E11.52463
G1 X137.340 Y61.718 E11.72135
G1 X137.800 Y62.088 E11.74068
G1 X138.220 Y62.508 E11.76012
G1 X142.200 Y66.938 E11.95509
G1 X142.560 Y67.388 E11.97396
G1 X142.880 Y67.878 E11.99312
G1 X145.860 Y73.038 E12.18820
G1 X146.130 Y73.558 E12.20738
G1 X146.330 Y74.098 E12.22623
G1 X148.160 Y79.718 E12.41973
G1 X148.320 Y80.288 E12.43911
G1 X148.410 Y80.858 E12.45801
G1 X149.040 Y86.828 E12.65454
G1 X149.070 Y87.418 E12.67388
G1 X149.040 Y87.998 E12.69290
G1 X148.420 Y93.918 E12.88777
G1 X148.330 Y94.498 E12.90698
G1 X148.180 Y95.058 E12.92596
G1 X146.340 Y100.728 E13.12112
G1 X146.130 Y101.278 E13.14040
G1 X145.860 Y101.798 E13.15958
G1 X142.880 Y106.958 E13.35466
G1 X142.560 Y107.448 E13.37382
G1 X142.200 Y107.898 E13.39268
G1 X138.220 Y112.328 E13.58765
G1 X137.800 Y112.748 E13.60710
G1 X137.340 Y113.118 E13.62642
G1 X132.470 Y116.638 E13.82315
G1 X131.980 Y116.958 E13.84231
G1 X131.470 Y117.218 E13.86105
G1 X126.070 Y119.618 E14.05451
G1 X125.520 Y119.828 E14.07379
G1 X124.960 Y119.978 E14.09277
G1 X119.130 Y121.218 E14.28790
G1 X118.270 Y121.328 E14.31629
G1 X115.000 Y121.498 E14.42349
G1 X49.560 Y121.498 E16.56591
G1 X48.320 Y121.358 E16.60676
G1 X47.140 Y120.948 E16.64766
G1 X46.080 Y120.278 E16.68871
G1 X45.200 Y119.398 E16.72945
G1 X44.530 Y118.338 E16.77051
G1 X44.120 Y117.158 E16.81140
G1 X43.980 Y115.918 E16.85226
G1 X43.980 Y108.918 E17.08143
G1 X44.190 Y107.398 E17.13166
G1 X44.810 Y105.998 E17.18179
G1 X45.780 Y104.818 E17.23180
G1 X92.076 Y62.197 E19.29197
G1 F1500.000 E18.49197
G92 E0
G1 X98.692 Y69.310 F7800.000
G1 F1500.000 E0.80000
M204 S2000
G1 X102.814 Y66.315 F1440.000 E0.96681
G1 X107.468 Y64.242 E1.13362
G1 X112.452 Y63.183 E1.30044
G1 X117.548 Y63.183 E1.46725
G1 X122.532 Y64.242 E1.63406
G1 X127.186 Y66.315 E1.80087
G1 X131.308 Y69.310 E1.96769
G1 X134.718 Y73.096 E2.13449
G1 X137.265 Y77.509 E2.30131
G1 X138.840 Y82.355 E2.46812
G1 X139.373 Y87.422 E2.63493
G1 X138.840 Y92.489 E2.80174
G1 X137.265 Y97.335 E2.96856
G1 X134.718 Y101.748 E3.13537
G1 X131.308 Y105.534 E3.30218
G1 X127.186 Y108.529 E3.46899
G1 X122.532 Y110.602 E3.63580
G1 X117.548 Y111.661 E3.80262
G1 X112.452 Y111.661 E3.96943
G1 X107.468 Y110.602 E4.13624
G1 X102.814 Y108.529 E4.30305
G1 X98.692 Y105.534 E4.46986
G1 X95.282 Y101.748 E4.63668
G1 X92.735 Y97.335 E4.80349
G1 X91.160 Y92.489 E4.97030
G1 X90.627 Y87.422 E5.13711
G1 X91.160 Y82.355 E5.30392
G1 X92.735 Y77.509 E5.47074
G1 X95.282 Y73.096 E5.63755
G1 X98.633 Y69.374 E5.80152
M204 S2000
G1 X99.081 Y69.742 F7800.000
M204 S2000
G1 X103.105 Y66.818 F1008.000 E5.96435
G1 X107.648 Y64.796 E6.12718
G1 X112.513 Y63.761 E6.29001
G1 X117.487 Y63.761 E6.45284
G1 X122.352 Y64.796 E6.61567
G1 X126.895 Y66.818 E6.77850
G1 X130.919 Y69.742 E6.94133
G1 X134.247 Y73.438 E7.10416
G1 X136.734 Y77.745 E7.26699
G1 X138.271 Y82.476 E7.42982
G1 X138.791 Y87.422 E7.59266
G1 X138.271 Y92.368 E7.75548
G1 X136.734 Y97.099 E7.91832
G1 X134.247 Y101.406 E8.08115
G1 X130.919 Y105.102 E8.24398
G1 X126.895 Y108.025 E8.40681
G1 X122.352 Y110.048 E8.56964
G1 X117.487 Y111.083 E8.73247
G1 X112.513 Y111.083 E8.89530
G1 X107.648 Y110.048 E9.05813
G1 X103.105 Y108.025 E9.22096
G1 X99.081 Y105.102 E9.38379
G1 X95.753 Y101.406 E9.54662
G1 X93.266 Y97.099 E9.70945
G1 X91.729 Y92.368 E9.87228
G1 X91.209 Y87.422 E10.03511
G1 X91.729 Y82.476 E10.19794
G1 X93.266 Y77.745 E10.36077
G1 X95.753 Y73.438 E10.52361
G1 X99.023 Y69.806 E10.68359
M204 S2000
G1 X99.624 Y69.940 F7800.000
G1 F1500.000 E9.88359
G92 E0
G1 X94.083 Y63.876 F7800.000
G1 X43.702 Y107.374
G1 X50.432 Y109.790
G1 F1500.000 E0.80000
M204 S2000
G1 X81.585 Y109.790 F1440.000 E1.81994
G1 X83.752 Y109.359 E1.89225
G1 X85.661 Y108.083 E1.96743
G1 X86.937 Y106.174 E2.04260
G1 X87.368 Y104.007 E2.11492
G1 X87.368 Y87.467 E2.65642
G1 X87.976 Y81.678 E2.84700
G1 X89.761 Y76.185 E3.03609
G1 X92.649 Y71.183 E3.22518
G1 X96.514 Y66.891 E3.41427
G1 X101.186 Y63.496 E3.60336
G1 X106.463 Y61.147 E3.79245
G1 X112.112 Y59.946 E3.98153
G1 X117.888 Y59.946 E4.17062
G1 X123.537 Y61.147 E4.35971
G1 X128.814 Y63.496 E4.54880
G1 X133.486 Y66.891 E4.73789
G1 X137.351 Y71.183 E4.92698
G1 X140.239 Y76.185 E5.11606
G1 X142.024 Y81.678 E5.30515
G1 X142.627 Y87.422 E5.49424
G1 X142.024 Y93.166 E5.68333
G1 X140.239 Y98.659 E5.87242
G1 X137.351 Y103.661 E6.06151
G1 X133.486 Y107.953 E6.25060
G1 X128.814 Y111.348 E6.43969
G1 X123.537 Y113.697 E6.62878
G1 X117.888 Y114.898 E6.81786
G1 X114.132 Y114.898 E6.94082
G1 X114.132 Y115.054 E6.94593
G1 X50.432 Y115.054 E9.03140
G1 X50.432 Y109.877 E9.20091
M204 S2000
G1 X49.853 Y109.211 F7800.000
M204 S2000
G1 X81.528 Y109.211 F1008.000 E10.23792
G1 X83.526 Y108.814 E10.30461
G1 X85.244 Y107.666 E10.37224
G1 X86.392 Y105.948 E10.43988
G1 X86.789 Y103.950 E10.50657
G1 X86.789 Y87.437 E11.04719
G1 X87.407 Y81.557 E11.24076
G1 X89.230 Y75.948 E11.43383
G1 X92.178 Y70.841 E11.62690
G1 X96.124 Y66.459 E11.81997
G1 X100.895 Y62.992 E12.01304
G1 X106.283 Y60.593 E12.20611
G1 X112.051 Y59.367 E12.39918
G1 X117.949 Y59.367 E12.59225
G1 X123.717 Y60.593 E12.78532
G1 X129.105 Y62.992 E12.97839
G1 X133.876 Y66.459 E13.17146
G1 X137.822 Y70.841 E13.36453
G1 X140.770 Y75.948 E13.55760
G1 X142.593 Y81.557 E13.75067
G1 X143.209 Y87.422 E13.94374
G1 X142.593 Y93.287 E14.13681
G1 X140.770 Y98.896 E14.32988
G1 X137.822 Y104.003 E14.52295
G1 X133.876 Y108.385 E14.71602
G1 X129.105 Y111.852 E14.90909
G1 X123.717 Y114.250 E15.10216
G1 X117.949 Y115.477 E15.29523
G1 X114.711 Y115.477 E15.40124
G1 X114.711 Y115.633 E15.40635
G1 X49.853 Y115.633 E17.52970
G1 X49.853 Y109.298 E17.73709
M204 S2000
G1 X50.354 Y109.500 F7800.000
G1 X51.224 Y114.635
M204 S2000
G1 X50.851 Y114.262 F2880.000 E17.75442
G1 X50.851 Y113.441 E17.78139
G1 X52.045 Y114.635 E17.83686
G1 X52.866 Y114.635 E17.86383
G1 X50.851 Y112.620 E17.95744
G1 X50.851 Y111.799 E17.98441
G1 X53.687 Y114.635 E18.11617
G1 X54.508 Y114.635 E18.14314
G1 X50.851 Y110.978 E18.31305
G1 X50.903 Y110.209 E18.33836
G1 X55.329 Y114.635 E18.54398
G1 X56.150 Y114.635 E18.57095
G1 X51.724 Y110.209 E18.77657
G1 X52.545 Y110.209 E18.80354
G1 X56.971 Y114.635 E19.00916
G1 X57.792 Y114.635 E19.03613
G1 X53.366 Y110.209 E19.24175
G1 X54.187 Y110.209 E19.26872
G1 X58.613 Y114.635 E19.47434
G1 X59.434 Y114.635 E19.50132
G1 X55.008 Y110.209 E19.70693
G1 X55.829 Y110.209 E19.73391
G1 X60.255 Y114.635 E19.93953
G1 X61.076 Y114.635 E19.96650
G1 X56.650 Y110.209 E20.17212
G1 X57.471 Y110.209 E20.19909
G1 X61.897 Y114.635 E20.40471
G1 X62.718 Y114.635 E20.43168
G1 X58.292 Y110.209 E20.63730
G1 X59.113 Y110.209 E20.66427
G1 X63.539 Y114.635 E20.86989
G1 X64.360 Y114.635 E20.89686
G1 X59.934 Y110.209 E21.10248
G1 X60.755 Y110.209 E21.12945
G1 X65.181 Y114.635 E21.33507
G1 X66.002 Y114.635 E21.36204
G1 X61.576 Y110.209 E21.56766
G1 X62.397 Y110.209 E21.59464
G1 X66.823 Y114.635 E21.80025
G1 X67.644 Y114.635 E21.82723
G1 X63.218 Y110.209 E22.03285
G1 X64.039 Y110.209 E22.05982
G1 X68.465 Y114.635 E22.26544
G1 X69.286 Y114.635 E22.29241
G1 X64.860 Y110.209 E22.49803
G1 X65.681 Y110.209 E22.52500
G1 X70.107 Y114.635 E22.73062
G1 X70.928 Y114.635 E22.75759
G1 X66.502 Y110.209 E22.96321
G1 X67.323 Y110.209 E22.99018
G1 X71.749 Y114.635 E23.19580
G1 X72.570 Y114.635 E23.22277
G1 X68.144 Y110.209 E23.42839
G1 X68.965 Y110.209 E23.45536
G1 X73.391 Y114.635 E23.66098
G1 X74.212 Y114.635 E23.68796
G1 X69.786 Y110.209 E23.89357
G1 X70.607 Y110.209 E23.92055
G1 X75.033 Y114.635 E24.12617
G1 X75.854 Y114.635 E24.15314
G1 X71.428 Y110.209 E24.35876
G1 X72.249 Y110.209 E24.38573
G1 X76.675 Y114.635 E24.59135
G1 X77.496 Y114.635 E24.61832
G1 X73.070 Y110.209 E24.82394
G1 X73.892 Y110.209 E24.85091
G1 X78.317 Y114.635 E25.05653
G1 X79.138 Y114.635 E25.08350
G1 X74.713 Y110.209 E25.28912
G1 X75.534 Y110.209 E25.31609
G1 X79.959 Y114.635 E25.52171
G1 X80.780 Y114.635 E25.54868
G1 X76.355 Y110.209 E25.75430
G1 X77.176 Y110.209 E25.78128
G1 X81.601 Y114.635 E25.98689
G1 X82.422 Y114.635 E26.01387
G1 X77.997 Y110.209 E26.21949
G1 X78.818 Y110.209 E26.24646
G1 X83.243 Y114.635 E26.45208
G1 X84.064 Y114.635 E26.47905
G1 X79.639 Y110.209 E26.68467
G1 X80.460 Y110.209 E26.71164
G1 X84.885 Y114.635 E26.91726
G1 X85.706 Y114.635 E26.94423
G1 X81.281 Y110.209 E27.14985
G1 X82.023 Y110.130 E27.17437
G1 X86.527 Y114.635 E27.38365
G1 X87.348 Y114.635 E27.41062
G1 X82.708 Y109.994 E27.62623
G1 X83.392 Y109.858 E27.64917
G1 X88.169 Y114.635 E27.87110
G1 X88.990 Y114.635 E27.89808
G1 X84.032 Y109.676 E28.12845
G1 X84.524 Y109.347 E28.14790
G1 X89.811 Y114.635 E28.39356
G1 X90.632 Y114.635 E28.42053
G1 X85.016 Y109.018 E28.68146
G1 X85.508 Y108.690 E28.70091
G1 X91.453 Y114.635 E28.97712
G1 X92.274 Y114.635 E29.00410
G1 X85.988 Y108.348 E29.29616
G1 X86.317 Y107.856 E29.31560
G1 X93.095 Y114.635 E29.63053
G1 X93.916 Y114.635 E29.65750
G1 X86.646 Y107.364 E29.99529
G1 X86.975 Y106.872 E30.01474
G1 X94.738 Y114.635 E30.37540
G1 X95.559 Y114.635 E30.40237
G1 X87.304 Y106.380 E30.78589
G1 X87.456 Y105.712 E30.80841
G1 X96.380 Y114.635 E31.22298
G1 X97.201 Y114.635 E31.24995
G1 X87.593 Y105.027 E31.69634
G1 X87.729 Y104.342 E31.71928
G1 X98.022 Y114.635 E32.19748
G1 X98.843 Y114.635 E32.22445
G1 X87.787 Y103.579 E32.73808
G1 X87.787 Y102.758 E32.76506
G1 X99.664 Y114.635 E33.31683
G1 X100.485 Y114.635 E33.34381
G1 X87.787 Y101.937 E33.93373
G1 X87.787 Y101.116 E33.96070
G1 X101.306 Y114.635 E34.58877
G1 X102.127 Y114.635 E34.61574
G1 X87.787 Y100.295 E35.28195
G1 X87.787 Y99.474 E35.30892
G1 X102.948 Y114.635 E36.01328
G1 X103.769 Y114.635 E36.04025
G1 X87.787 Y98.653 E36.78275
G1 X87.787 Y97.832 E36.80972
G1 X104.590 Y114.635 E37.59036
G1 X105.411 Y114.635 E37.61733
G1 X87.787 Y97.011 E38.43612
G1 X87.787 Y96.190 E38.46309
G1 X106.232 Y114.635 E39.32002
G1 X107.053 Y114.635 E39.34700
G1 X87.787 Y95.369 E40.24207
G1 X87.787 Y94.548 E40.26904
G1 X94.540 Y101.301 E40.58279
G1 X93.419 Y99.359 E40.65647
G1 X87.787 Y93.727 E40.91811
G1 X87.787 Y92.906 E40.94508
G1 X92.331 Y97.450 E41.15619
G1 X91.936 Y96.234 E41.19820
G1 X87.787 Y92.085 E41.39095
G1 X87.787 Y91.264 E41.41792
G1 X91.541 Y95.018 E41.59230
G1 X91.145 Y93.801 E41.63431
G1 X87.787 Y90.443 E41.79034
G1 X87.787 Y89.622 E41.81731
G1 X90.750 Y92.585 E41.95498
G1 X90.652 Y91.666 E41.98536
G1 X87.787 Y88.801 E42.11845
G1 X87.787 Y87.980 E42.14542
G1 X90.555 Y90.748 E42.27404
G1 X90.459 Y89.831 E42.30434
G1 X87.819 Y87.191 E42.42701
G1 X87.897 Y86.448 E42.45156
G1 X90.363 Y88.914 E42.56612
G1 X90.266 Y87.996 E42.59643
G1 X87.975 Y85.705 E42.70288
G1 X88.053 Y84.962 E42.72743
G1 X90.235 Y87.144 E42.82881
G1 X90.313 Y86.401 E42.85335
G1 X88.131 Y84.219 E42.95474
G1 X88.209 Y83.476 E42.97928
G1 X90.391 Y85.658 E43.08066
G1 X90.469 Y84.915 E43.10520
G1 X88.287 Y82.733 E43.20659
G1 X88.365 Y81.990 E43.23113
G1 X90.547 Y84.172 E43.33251
G1 X90.625 Y83.429 E43.35705
G1 X88.529 Y81.333 E43.45444
G1 X88.731 Y80.713 E43.47584
G1 X90.703 Y82.686 E43.56750
G1 X90.835 Y81.997 E43.59056
G1 X88.932 Y80.094 E43.67898
G1 X89.133 Y79.474 E43.70039
G1 X91.037 Y81.377 E43.78882
G1 X91.238 Y80.758 E43.81022
G1 X89.335 Y78.854 E43.89865
G1 X89.536 Y78.235 E43.92005
G1 X91.439 Y80.138 E44.00848
G1 X91.641 Y79.518 E44.02989
G1 X89.737 Y77.615 E44.11831
G1 X89.939 Y76.995 E44.13972
G1 X91.842 Y78.899 E44.22815
G1 X92.043 Y78.279 E44.24955
G1 X90.140 Y76.376 E44.33798
G1 X90.437 Y75.852 E44.35776
G1 X92.245 Y77.659 E44.44173
G1 X92.494 Y77.087 E44.46222
G1 X90.738 Y75.332 E44.54379
G1 X91.038 Y74.811 E44.56354
G1 X92.794 Y76.567 E44.64511
G1 X93.095 Y76.046 E44.66485
G1 X91.339 Y74.291 E44.74642
G1 X91.639 Y73.770 E44.76617
G1 X93.395 Y75.526 E44.84774
G1 X93.696 Y75.005 E44.86748
G1 X91.940 Y73.250 E44.94905
G1 X92.240 Y72.729 E44.96880
G1 X93.996 Y74.485 E45.05037
G1 X94.297 Y73.964 E45.07011
G1 X92.541 Y72.209 E45.15168
G1 X92.841 Y71.688 E45.17143
G1 X94.597 Y73.444 E45.25300
G1 X94.898 Y72.923 E45.27274
G1 X93.187 Y71.212 E45.35223
G1 X93.576 Y70.780 E45.37133
G1 X95.274 Y72.479 E45.45023
G1 X95.663 Y72.047 E45.46933
G1 X93.965 Y70.348 E45.54823
G1 X94.354 Y69.916 E45.56732
G1 X96.052 Y71.615 E45.64622
G1 X96.441 Y71.182 E45.66532
G1 X94.743 Y69.484 E45.74422
G1 X95.132 Y69.052 E45.76332
G1 X96.830 Y70.750 E45.84221
G1 X97.219 Y70.318 E45.86131
G1 X95.521 Y68.620 E45.94021
G1 X95.910 Y68.188 E45.95931
G1 X97.608 Y69.886 E46.03821
G1 X97.997 Y69.454 E46.05730
G1 X96.299 Y67.756 E46.13620
G1 X96.688 Y67.324 E46.15530
G1 X98.386 Y69.022 E46.23420
G1 X98.856 Y68.672 E46.25347
G1 X97.139 Y66.955 E46.33324
G1 X97.615 Y66.609 E46.35255
G1 X99.332 Y68.326 E46.43232
G1 X99.807 Y67.981 E46.45163
G1 X98.090 Y66.264 E46.53140
G1 X98.566 Y65.918 E46.55071
G1 X100.283 Y67.635 E46.63048
