; generated by Slic3r 0.9.10b on 2013-11-09 at 03:58:24

; layer_height = 0.4
; perimeters = 2
; top_solid_layers = 3
; bottom_solid_layers = 3
; fill_density = 0.2
; perimeter_speed = 200
; infill_speed = 200
; travel_speed = 250
; nozzle_diameter = 0.5
; filament_diameter = 3
; extrusion_multiplier = 1
; perimeters extrusion width = 0.53mm
; infill extrusion width = 0.53mm
; solid infill extrusion width = 0.53mm
; top infill extrusion width = 0.53mm
; first layer extrusion width = 0.60mm

G21 ; set units to millimeters
M190 S125; heat up bed
M109 S230; heat up nozzle
G92 E0; gregor: reset extruder
G28 ; home all axes
G90 ; use absolute coordinates
G92 E0
M82 ; use absolute distances for extrusion
G1 F1500.000 E-0.80000
G92 E0
G1 Z0.000 F15000.000
G1 X73.350 Y64.430
G1 F1500.000 E0.80000
G1 X73.810 Y63.980 F9600.000 E0.82107
G1 X74.300 Y63.570 E0.84198
G1 X78.610 Y60.430 E1.01656
G1 X79.160 Y60.080 E1.03791
G1 X79.740 Y59.780 E1.05928
G1 X84.620 Y57.610 E1.23413
G1 X85.220 Y57.380 E1.25517
G1 X85.850 Y57.220 E1.27645
G1 X91.060 Y56.120 E1.45078
G1 X91.690 Y56.020 E1.47166
G1 X92.330 Y55.980 E1.49266
G1 X97.660 Y55.980 E1.66715
G1 X98.300 Y56.020 E1.68815
G1 X98.930 Y56.120 E1.70903
G1 X104.140 Y57.220 E1.88336
G1 X104.770 Y57.380 E1.90464
G1 X105.380 Y57.620 E1.92610
G1 X110.250 Y59.790 E2.10065
G1 X110.820 Y60.080 E2.12159
G1 X111.360 Y60.430 E2.14265
G1 X115.680 Y63.570 E2.31750
G1 X116.180 Y63.980 E2.33867
G1 X116.640 Y64.430 E2.35973
G1 X120.200 Y68.390 E2.53407
G1 X120.600 Y68.890 E2.55503
G1 X120.950 Y69.420 E2.57582
G1 X123.620 Y74.030 E2.75023
G1 X123.910 Y74.610 E2.77146
G1 X124.140 Y75.210 E2.79250
G1 X125.790 Y80.280 E2.96705
G1 X125.960 Y80.910 E2.98842
G1 X126.060 Y81.560 E3.00995
G1 X126.610 Y86.870 E3.18472
G1 X126.650 Y87.500 E3.20539
G1 X126.610 Y88.140 E3.22638
G1 X126.060 Y93.440 E3.40083
G1 X125.960 Y94.080 E3.42203
G1 X125.790 Y94.710 E3.44340
G1 X124.140 Y99.780 E3.61795
G1 X123.910 Y100.380 E3.63899
G1 X123.620 Y100.960 E3.66022
G1 X120.950 Y105.570 E3.83463
G1 X120.600 Y106.100 E3.85542
G1 X120.200 Y106.590 E3.87613
G1 X116.640 Y110.560 E4.05071
G1 X116.180 Y111.020 E4.07200
G1 X115.670 Y111.440 E4.09363
G1 X111.350 Y114.570 E4.26829
G1 X110.820 Y114.910 E4.28890
G1 X110.250 Y115.200 E4.30984
G1 X105.380 Y117.370 E4.48439
G1 X104.770 Y117.600 E4.50573
G1 X104.150 Y117.770 E4.52678
G1 X98.940 Y118.880 E4.70117
G1 X98.310 Y118.980 E4.72206
G1 X97.660 Y119.020 E4.74338
G1 X92.330 Y119.020 E4.91788
G1 X91.680 Y118.980 E4.93920
G1 X91.050 Y118.880 E4.96008
G1 X85.840 Y117.770 E5.13448
G1 X85.220 Y117.610 E5.15544
G1 X84.620 Y117.380 E5.17648
G1 X79.740 Y115.210 E5.35132
G1 X79.160 Y114.910 E5.37270
G1 X78.620 Y114.560 E5.39377
G1 X74.310 Y111.430 E5.56816
G1 X73.810 Y111.020 E5.58932
G1 X73.350 Y110.560 E5.61062
G1 X69.790 Y106.590 E5.78520
G1 X69.390 Y106.100 E5.80591
G1 X69.040 Y105.570 E5.82670
G1 X66.370 Y100.960 E6.00111
G1 X66.080 Y100.380 E6.02234
G1 X65.850 Y99.780 E6.04338
G1 X64.200 Y94.710 E6.21793
G1 X64.030 Y94.080 E6.23930
G1 X63.930 Y93.440 E6.26050
G1 X63.380 Y88.140 E6.43495
G1 X63.340 Y87.500 E6.45594
G1 X63.380 Y86.870 E6.47661
G1 X63.930 Y81.560 E6.65138
G1 X64.030 Y80.910 E6.67291
G1 X64.200 Y80.280 E6.69428
G1 X65.850 Y75.210 E6.86883
G1 X66.080 Y74.610 E6.88987
G1 X66.370 Y74.030 E6.91110
G1 X69.040 Y69.420 E7.08551
G1 X69.390 Y68.890 E7.10630
G1 X69.790 Y68.390 E7.12726
G1 X73.292 Y64.494 E7.29875
G1 X73.780 Y64.820 F15000.000
G1 X74.190 Y64.410 F9600.000 E7.31774
G1 X74.650 Y64.040 E7.33706
G1 X78.960 Y60.900 E7.51164
G1 X79.450 Y60.580 E7.53080
G1 X79.970 Y60.310 E7.54999
G1 X84.850 Y58.140 E7.72483
G1 X85.400 Y57.930 E7.74411
G1 X85.970 Y57.780 E7.76340
G1 X91.180 Y56.680 E7.93773
G1 X91.750 Y56.590 E7.95662
G1 X92.330 Y56.560 E7.97564
G1 X97.660 Y56.560 E8.15014
G1 X98.240 Y56.590 E8.16915
G1 X98.810 Y56.680 E8.18804
G1 X104.020 Y57.780 E8.36237
G1 X104.590 Y57.930 E8.38167
G1 X105.140 Y58.140 E8.40094
G1 X110.010 Y60.310 E8.57549
G1 X110.530 Y60.580 E8.59467
G1 X111.020 Y60.900 E8.61383
G1 X115.340 Y64.040 E8.78868
G1 X115.790 Y64.410 E8.80775
G1 X116.210 Y64.820 E8.82696
G1 X119.770 Y68.780 E9.00130
G1 X120.130 Y69.230 E9.02016
G1 X120.450 Y69.710 E9.03905
G1 X123.120 Y74.320 E9.21346
G1 X123.380 Y74.850 E9.23279
G1 X123.590 Y75.390 E9.25176
G1 X125.240 Y80.460 E9.42631
G1 X125.400 Y81.030 E9.44569
G1 X125.490 Y81.620 E9.46523
G1 X126.040 Y86.930 E9.64000
G1 X126.070 Y87.500 E9.65869
G1 X126.040 Y88.080 E9.67770
G1 X125.490 Y93.380 E9.85215
G1 X125.400 Y93.960 E9.87137
G1 X125.240 Y94.530 E9.89075
G1 X123.590 Y99.600 E10.06530
G1 X123.380 Y100.140 E10.08427
G1 X123.120 Y100.670 E10.10360
G1 X120.450 Y105.280 E10.27801
G1 X120.130 Y105.760 E10.29690
G1 X119.770 Y106.200 E10.31551
G1 X116.210 Y110.170 E10.49008
G1 X115.790 Y110.590 E10.50953
G1 X115.330 Y110.970 E10.52906
G1 X111.010 Y114.100 E10.70372
G1 X110.530 Y114.410 E10.72242
G1 X110.010 Y114.680 E10.74160
G1 X105.140 Y116.850 E10.91615
G1 X104.600 Y117.050 E10.93501
G1 X104.030 Y117.210 E10.95439
G1 X98.820 Y118.320 E11.12878
G1 X98.240 Y118.410 E11.14800
G1 X97.660 Y118.440 E11.16701
G1 X92.330 Y118.440 E11.34151
G1 X91.750 Y118.410 E11.36053
G1 X91.170 Y118.320 E11.37974
G1 X85.960 Y117.210 E11.55414
G1 X85.400 Y117.060 E11.57312
G1 X84.850 Y116.850 E11.59239
G1 X79.970 Y114.680 E11.76724
G1 X79.450 Y114.410 E11.78642
G1 X78.960 Y114.090 E11.80558
G1 X74.650 Y110.960 E11.97997
G1 X74.190 Y110.590 E11.99930
G1 X73.780 Y110.170 E12.01851
G1 X70.220 Y106.200 E12.19309
G1 X69.860 Y105.760 E12.21170
G1 X69.540 Y105.280 E12.23059
G1 X66.870 Y100.670 E12.40500
G1 X66.610 Y100.140 E12.42432
G1 X66.400 Y99.600 E12.44329
G1 X64.750 Y94.530 E12.61785
G1 X64.590 Y93.960 E12.63723
G1 X64.500 Y93.380 E12.65644
G1 X63.950 Y88.080 E12.83089
G1 X63.920 Y87.500 E12.84990
G1 X63.950 Y86.930 E12.86859
G1 X64.500 Y81.620 E13.04336
G1 X64.590 Y81.030 E13.06290
G1 X64.750 Y80.460 E13.08229
G1 X66.400 Y75.390 E13.25684
G1 X66.610 Y74.850 E13.27581
G1 X66.870 Y74.320 E13.29513
G1 X69.540 Y69.710 E13.46955
G1 X69.860 Y69.230 E13.48843
G1 X70.220 Y68.780 E13.50730
G1 X73.722 Y64.884 E13.67879
G1 F1500.000 E12.87879
G92 E0
G1 X79.081 Y69.820 F15000.000
G1 F1500.000 E0.80000
M204 S2000
G1 X83.105 Y66.897 F2880.000 E0.96283
G1 X87.648 Y64.874 E1.12566
G1 X92.513 Y63.839 E1.28849
G1 X97.487 Y63.839 E1.45132
G1 X102.352 Y64.874 E1.61415
G1 X106.895 Y66.897 E1.77698
G1 X110.919 Y69.820 E1.93981
G1 X114.008 Y73.250 E2.09093
G1 X114.247 Y73.516 E2.10264
G1 X116.734 Y77.823 E2.26547
G1 X118.271 Y82.554 E2.42831
G1 X118.791 Y87.500 E2.59114
G1 X118.271 Y92.446 E2.75397
G1 X116.734 Y97.177 E2.91680
G1 X114.247 Y101.484 E3.07963
G1 X110.919 Y105.180 E3.24246
G1 X106.895 Y108.103 E3.40529
G1 X102.352 Y110.126 E3.56812
G1 X97.487 Y111.161 E3.73095
G1 X92.513 Y111.161 E3.89378
G1 X87.648 Y110.126 E4.05661
G1 X83.105 Y108.103 E4.21944
G1 X79.081 Y105.180 E4.38227
G1 X75.753 Y101.484 E4.54510
G1 X73.266 Y97.177 E4.70793
G1 X71.729 Y92.446 E4.87076
G1 X71.209 Y87.500 E5.03359
G1 X71.729 Y82.554 E5.19642
G1 X73.266 Y77.823 E5.35926
G1 X75.753 Y73.516 E5.52209
G1 X79.023 Y69.884 E5.68207
M204 S2000
G1 X79.624 Y70.018 F15000.000
G1 X78.132 Y68.766
M204 S2000
G1 X82.395 Y65.668 F2880.000 E5.85461
G1 X86.913 Y63.657 E6.01651
G1 X87.210 Y63.525 E6.02715
G1 X92.365 Y62.429 E6.19968
G1 X97.635 Y62.429 E6.37222
G1 X102.790 Y63.525 E6.54476
G1 X107.605 Y65.668 E6.71730
G1 X111.868 Y68.766 E6.88983
G1 X115.395 Y72.682 E7.06237
G1 X118.030 Y77.247 E7.23491
G1 X119.658 Y82.259 E7.40745
G1 X120.209 Y87.500 E7.57998
G1 X119.658 Y92.741 E7.75252
G1 X118.030 Y97.753 E7.92506
G1 X115.395 Y102.318 E8.09760
G1 X111.868 Y106.234 E8.27013
G1 X107.605 Y109.332 E8.44267
G1 X102.790 Y111.475 E8.61521
G1 X97.635 Y112.571 E8.78774
G1 X92.365 Y112.571 E8.96028
G1 X87.210 Y111.475 E9.13282
G1 X82.395 Y109.332 E9.30536
G1 X78.132 Y106.234 E9.47789
G1 X74.605 Y102.318 E9.65043
G1 X71.970 Y97.753 E9.82297
G1 X70.342 Y92.741 E9.99551
G1 X69.791 Y87.500 E10.16804
G1 X70.342 Y82.259 E10.34058
G1 X71.970 Y77.247 E10.51312
G1 X74.605 Y72.682 E10.68566
G1 X78.074 Y68.830 E10.85535
M204 S2000
G1 X78.675 Y68.964 F15000.000
G1 F1500.000 E10.05535
G92 E0
G1 X75.881 Y66.350 F15000.000
G1 X71.901 Y70.787
G1 X68.931 Y75.955
G1 X67.100 Y81.627
G1 X66.489 Y87.556
G1 X67.124 Y93.483
G1 X68.977 Y99.148
G1 X71.967 Y104.304
G1 X75.964 Y108.726
G1 X80.793 Y112.219
G1 X81.122 Y107.678
G1 F1500.000 E0.80000
G1 X80.073 Y106.629 F960.000 E0.84881
G1 X82.942 Y108.676 F15000.000
G1 X83.400 Y109.134 F960.000 E0.87011
G1 X84.424 Y109.336 E0.90443
G1 X84.882 Y109.794 E0.92574
G1 X85.905 Y109.995 E0.96006
G1 X86.363 Y110.453 E0.98137
G1 X87.387 Y110.655 E1.01568
G1 X87.711 Y110.980 E1.03078
G1 X88.454 Y110.900 E1.05534
G1 X88.755 Y111.201 E1.06936
G1 X89.498 Y111.122 E1.09393
G1 X89.799 Y111.423 E1.10795
G1 X90.542 Y111.344 E1.13251
G1 X90.843 Y111.645 E1.14653
G1 X91.586 Y111.566 E1.17109
G1 X91.887 Y111.867 E1.18511
G1 X92.592 Y111.750 E1.20861
G1 X92.824 Y111.982 E1.21941
G1 X93.414 Y111.750 E1.24026
G1 X93.646 Y111.982 E1.25106
G1 X94.236 Y111.750 E1.27191
G1 X94.468 Y111.982 E1.28271
G1 X95.058 Y111.750 E1.30356
G1 X95.290 Y111.982 E1.31436
G1 X95.880 Y111.750 E1.33521
G1 X96.112 Y111.982 E1.34601
G1 X96.702 Y111.750 E1.36686
G1 X96.934 Y111.982 E1.37766
G1 X97.524 Y111.750 E1.39851
G1 X97.724 Y111.950 E1.40781
G1 X98.206 Y111.610 E1.42722
G1 X98.402 Y111.806 E1.43632
G1 X98.884 Y111.466 E1.45572
G1 X99.080 Y111.662 E1.46483
G1 X99.562 Y111.322 E1.48423
G1 X99.758 Y111.517 E1.49334
G1 X100.240 Y111.178 E1.51274
G1 X100.436 Y111.373 E1.52185
G1 X100.918 Y111.034 E1.54125
G1 X101.114 Y111.229 E1.55035
G1 X101.596 Y110.889 E1.56976
G1 X101.792 Y111.085 E1.57886
G1 X102.274 Y110.745 E1.59827
G1 X102.469 Y110.941 E1.60737
G1 X102.885 Y110.534 E1.62649
G1 X103.060 Y110.710 E1.63467
G1 X103.453 Y110.281 E1.65381
G1 X103.629 Y110.457 E1.66199
G1 X104.022 Y110.028 E1.68113
G1 X104.198 Y110.203 E1.68930
G1 X104.591 Y109.774 E1.70844
G1 X104.767 Y109.950 E1.71662
G1 X105.160 Y109.521 E1.73576
G1 X105.336 Y109.697 E1.74394
G1 X105.729 Y109.268 E1.76308
G1 X105.904 Y109.444 E1.77125
G1 X106.297 Y109.015 E1.79039
G1 X106.473 Y109.191 E1.79857
G1 X106.866 Y108.761 E1.81771
G1 X107.042 Y108.937 E1.82589
G1 X107.395 Y108.469 E1.84519
G1 X107.561 Y108.635 E1.85292
G1 X108.038 Y108.289 E1.87228
G1 X107.871 Y108.123 E1.88001
G1 X108.347 Y107.777 E1.89937
G1 X108.514 Y107.943 E1.90710
G1 X108.990 Y107.597 E1.92646
G1 X108.824 Y107.431 E1.93419
G1 X109.300 Y107.085 E1.95355
G1 X109.466 Y107.251 E1.96128
G1 X109.942 Y106.905 E1.98063
G1 X109.776 Y106.739 E1.98836
G1 X110.252 Y106.393 E2.00772
G1 X110.418 Y106.559 E2.01545
G1 X110.894 Y106.213 E2.03481
G1 X110.728 Y106.047 E2.04254
G1 X111.204 Y105.701 E2.06190
G1 X111.370 Y105.867 E2.06963
G1 X111.778 Y105.453 E2.08875
G1 X111.614 Y105.289 E2.09639
G1 X112.003 Y104.856 E2.11554
G1 X112.168 Y105.021 E2.12319
G1 X112.557 Y104.588 E2.14233
G1 X112.393 Y104.424 E2.14998
G1 X112.782 Y103.991 E2.16912
G1 X112.947 Y104.156 E2.17677
G1 X113.336 Y103.723 E2.19591
G1 X113.172 Y103.559 E2.20356
G1 X113.561 Y103.126 E2.22270
G1 X113.726 Y103.291 E2.23035
G1 X114.115 Y102.858 E2.24949
G1 X113.951 Y102.694 E2.25714
G1 X114.340 Y102.261 E2.27628
G1 X114.505 Y102.425 E2.28393
G1 X114.894 Y101.993 E2.30307
G1 X114.729 Y101.828 E2.31075
G1 X115.200 Y101.477 E2.33007
G1 X115.030 Y101.307 E2.33798
G1 X115.501 Y100.955 E2.35730
G1 X115.331 Y100.786 E2.36520
G1 X115.802 Y100.434 E2.38452
G1 X115.632 Y100.264 E2.39243
G1 X116.102 Y99.913 E2.41175
G1 X115.933 Y99.743 E2.41965
G1 X116.403 Y99.392 E2.43897
G1 X116.233 Y99.222 E2.44688
G1 X116.704 Y98.871 E2.46620
G1 X116.534 Y98.701 E2.47411
G1 X117.005 Y98.350 E2.49343
G1 X116.835 Y98.180 E2.50133
G1 X117.306 Y97.829 E2.52065
G1 X117.136 Y97.659 E2.52856
G1 X117.568 Y97.268 E2.54770
G1 X117.384 Y97.084 E2.55627
G1 X117.769 Y96.648 E2.57543
G1 X117.585 Y96.464 E2.58400
G1 X117.971 Y96.028 E2.60316
G1 X117.787 Y95.843 E2.61173
G1 X118.173 Y95.407 E2.63088
G1 X117.988 Y95.223 E2.63945
G1 X118.374 Y94.787 E2.65861
G1 X118.190 Y94.602 E2.66718
G1 X118.576 Y94.166 E2.68633
G1 X118.392 Y93.982 E2.69490
G1 X118.777 Y93.546 E2.71406
G1 X118.593 Y93.362 E2.72263
G1 X118.979 Y92.925 E2.74179
G1 X118.795 Y92.741 E2.75036
G1 X119.118 Y92.243 E2.76990
G1 X118.907 Y92.031 E2.77973
G1 X119.196 Y91.499 E2.79967
G1 X118.985 Y91.288 E2.80950
G1 X119.275 Y90.755 E2.82943
G1 X119.063 Y90.544 E2.83926
G1 X119.353 Y90.011 E2.85920
G1 X119.142 Y89.800 E2.86902
G1 X119.431 Y89.267 E2.88896
G1 X119.220 Y89.056 E2.89879
G1 X119.509 Y88.523 E2.91873
G1 X119.298 Y88.312 E2.92855
G1 X119.587 Y87.780 E2.94849
G1 X119.376 Y87.568 E2.95832
G1 X119.556 Y86.927 E2.98024
G1 X119.296 Y86.666 E2.99238
G1 X119.460 Y86.008 E3.01468
G1 X119.199 Y85.747 E3.02681
G1 X119.363 Y85.090 E3.04911
G1 X119.103 Y84.829 E3.06124
G1 X119.267 Y84.171 E3.08354
G1 X119.006 Y83.910 E3.09568
G1 X119.170 Y83.252 E3.11798
G1 X118.909 Y82.992 E3.13011
G1 X119.058 Y82.318 E3.15279
G1 X118.696 Y81.957 E3.16961
G1 X118.662 Y81.100 E3.19780
G1 X118.301 Y80.739 E3.21462
G1 X118.267 Y79.883 E3.24280
G1 X117.905 Y79.521 E3.25962
G1 X117.871 Y78.665 E3.28780
G1 X117.509 Y78.303 E3.30462
G1 X117.452 Y77.423 E3.33363
G1 X116.817 Y76.789 E3.36314
G1 X116.329 Y75.478 E3.40915
G1 X115.694 Y74.844 E3.43865
G1 X115.206 Y73.534 E3.48466
G1 X113.701 Y72.029 E3.55466
G1 X110.351 Y68.679 F15000.000
G1 X109.302 Y67.630 F960.000 E3.60347
G1 X107.345 Y66.495 E3.67788
G1 X106.809 Y65.959 E3.70280
G1 X105.785 Y65.757 E3.73712
G1 X105.327 Y65.299 E3.75842
G1 X104.304 Y65.098 E3.79274
G1 X103.846 Y64.640 E3.81405
G1 X102.822 Y64.438 E3.84837
G1 X102.436 Y64.052 E3.86633
G1 X101.693 Y64.131 E3.89090
G1 X101.392 Y63.830 E3.90492
G1 X100.649 Y63.909 E3.92948
G1 X100.348 Y63.608 E3.94350
G1 X99.605 Y63.687 E3.96807
G1 X99.304 Y63.386 E3.98208
G1 X98.561 Y63.466 E4.00665
G1 X98.260 Y63.164 E4.02067
G1 X97.524 Y63.250 E4.04504
G1 X97.292 Y63.018 E4.05584
G1 X96.702 Y63.250 E4.07669
G1 X96.470 Y63.018 E4.08749
G1 X95.880 Y63.250 E4.10834
G1 X95.648 Y63.018 E4.11914
G1 X95.058 Y63.250 E4.13999
G1 X94.826 Y63.018 E4.15079
G1 X94.236 Y63.250 E4.17164
G1 X94.004 Y63.018 E4.18244
G1 X93.414 Y63.250 E4.20329
G1 X93.182 Y63.018 E4.21408
G1 X92.592 Y63.250 E4.23494
G1 X92.372 Y63.030 E4.24519
G1 X91.889 Y63.370 E4.26459
G1 X91.694 Y63.174 E4.27370
G1 X91.211 Y63.514 E4.29310
G1 X91.016 Y63.318 E4.30220
G1 X90.534 Y63.658 E4.32161
G1 X90.338 Y63.462 E4.33071
G1 X89.856 Y63.802 E4.35012
G1 X89.660 Y63.606 E4.35922
G1 X89.178 Y63.946 E4.37862
G1 X88.982 Y63.750 E4.38773
G1 X88.500 Y64.090 E4.40713
G1 X88.304 Y63.894 E4.41624
G1 X87.822 Y64.234 E4.43564
G1 X87.626 Y64.039 E4.44475
G1 X87.196 Y64.430 E4.46389
G1 X87.020 Y64.254 E4.47207
G1 X86.627 Y64.683 E4.49120
G1 X86.451 Y64.508 E4.49938
G1 X86.058 Y64.937 E4.51852
G1 X85.882 Y64.761 E4.52670
G1 X85.489 Y65.190 E4.54584
G1 X85.313 Y65.014 E4.55402
G1 X84.920 Y65.443 E4.57315
G1 X84.745 Y65.267 E4.58133
G1 X84.352 Y65.696 E4.60047
G1 X84.176 Y65.521 E4.60865
G1 X83.783 Y65.950 E4.62779
G1 X83.607 Y65.774 E4.63597
G1 X83.214 Y66.203 E4.65510
G1 X83.038 Y66.027 E4.66328
G1 X82.672 Y66.483 E4.68251
G1 X82.506 Y66.316 E4.69024
G1 X82.030 Y66.662 E4.70960
G1 X82.196 Y66.829 E4.71733
G1 X81.720 Y67.174 E4.73669
G1 X81.553 Y67.008 E4.74442
G1 X81.077 Y67.354 E4.76378
G1 X81.244 Y67.520 E4.77151
G1 X80.767 Y67.866 E4.79087
G1 X80.601 Y67.700 E4.79860
G1 X80.125 Y68.046 E4.81795
G1 X80.291 Y68.212 E4.82568
G1 X79.815 Y68.558 E4.84504
G1 X79.649 Y68.392 E4.85277
G1 X79.173 Y68.738 E4.87213
G1 X79.339 Y68.904 E4.87986
G1 X78.863 Y69.250 E4.89922
G1 X78.697 Y69.084 E4.90695
G1 X78.277 Y69.486 E4.92607
G1 X78.441 Y69.650 E4.93372
G1 X78.052 Y70.083 E4.95286
G1 X77.887 Y69.918 E4.96051
G1 X77.498 Y70.351 E4.97966
G1 X77.662 Y70.515 E4.98730
G1 X77.273 Y70.948 E5.00645
G1 X77.108 Y70.783 E5.01409
G1 X76.719 Y71.216 E5.03324
G1 X76.883 Y71.380 E5.04088
G1 X76.494 Y71.813 E5.06003
G1 X76.329 Y71.648 E5.06767
G1 X75.940 Y72.081 E5.08682
G1 X76.104 Y72.245 E5.09446
G1 X75.715 Y72.678 E5.11361
