; generated by Slic3r 0.9.10b on 2013-07-17 at 10:00:33

; layer_height = 0.3
; perimeters = 3
; top_solid_layers = 3
; bottom_solid_layers = 3
; fill_density = 0.2
; perimeter_speed = 40
; infill_speed = 40
; travel_speed = 40
; nozzle_diameter = 0.5
; filament_diameter = 3.2
; extrusion_multiplier = 0.9
; perimeters extrusion width = 0.70mm
; infill extrusion width = 0.70mm
; solid infill extrusion width = 0.70mm
; top infill extrusion width = 0.70mm
; first layer extrusion width = 0.60mm

G21 ; set units to millimeters
M107
M190 S110 ; wait for bed temperature to be reached
M104 S235 ; set temperature
G28 ; home all axes
G1 Z5 F5000 ; lift nozzle
M109 S235 ; wait for temperature to be reached
G90 ; use absolute coordinates
G92 E0
M82 ; use absolute distances for extrusion
G1 F1500.000 E-0.40000
G92 E0
G1 Z0.300 F2400.000
G1 X77.030 Y61.350
G1 F1500.000 E0.40000
G1 X77.850 Y60.350 F1440.000 E0.42512
G1 X78.850 Y59.530 E0.45024
G1 X79.980 Y58.920 E0.47518
G1 X81.220 Y58.550 E0.50031
G1 X82.500 Y58.420 E0.52530
G1 X107.500 Y58.420 E1.01086
G1 X108.780 Y58.550 E1.03585
G1 X110.020 Y58.920 E1.06099
G1 X111.150 Y59.530 E1.08593
G1 X112.150 Y60.350 E1.11104
G1 X112.970 Y61.350 E1.13616
G1 X113.580 Y62.480 E1.16110
G1 X113.950 Y63.720 E1.18624
G1 X114.080 Y65.000 E1.21122
G1 X114.080 Y125.000 E2.37658
G1 X113.950 Y126.280 E2.40157
G1 X113.580 Y127.520 E2.42670
G1 X112.970 Y128.650 E2.45164
G1 X112.150 Y129.650 E2.47676
G1 X111.150 Y130.470 E2.50188
G1 X110.020 Y131.080 E2.52682
G1 X108.780 Y131.450 E2.55195
G1 X107.500 Y131.580 E2.57694
G1 X82.500 Y131.580 E3.06251
G1 X81.220 Y131.450 E3.08750
G1 X79.980 Y131.080 E3.11263
G1 X78.850 Y130.470 E3.13757
G1 X77.850 Y129.650 E3.16269
G1 X77.030 Y128.650 E3.18781
G1 X76.420 Y127.520 E3.21275
G1 X76.050 Y126.280 E3.23788
G1 X75.920 Y125.000 E3.26287
G1 X75.920 Y65.000 E4.42822
G1 X76.050 Y63.720 E4.45321
G1 X76.420 Y62.480 E4.47835
G1 X76.989 Y61.426 E4.50160
G1 F1500.000 E4.10160
G92 E0
G1 X92.336 Y72.796 F2400.000
G1 F1500.000 E0.40000
G1 X92.968 Y72.203 F1440.000 E0.41683
G1 X93.141 Y72.107 E0.42068
G1 X93.727 Y71.785 E0.43367
G1 X94.567 Y71.569 E0.45050
G1 X95.433 Y71.569 E0.46734
G1 X96.273 Y71.785 E0.48417
G1 X97.032 Y72.203 E0.50101
G1 X97.664 Y72.796 E0.51784
G1 X98.129 Y73.528 E0.53468
G1 X98.397 Y74.352 E0.55152
G1 X98.451 Y75.217 E0.56835
G1 X98.289 Y76.069 E0.58518
G1 X97.920 Y76.853 E0.60202
G1 X97.367 Y77.521 E0.61885
G1 X96.666 Y78.030 E0.63569
G1 X95.860 Y78.349 E0.65252
G1 X95.000 Y78.458 E0.66936
G1 X94.140 Y78.349 E0.68619
G1 X93.334 Y78.030 E0.70303
G1 X92.633 Y77.521 E0.71986
G1 X92.080 Y76.853 E0.73670
G1 X91.711 Y76.068 E0.75353
G1 X91.549 Y75.217 E0.77037
G1 X91.603 Y74.352 E0.78720
G1 X91.871 Y73.528 E0.80404
G1 X92.289 Y72.869 E0.81919
G1 X92.785 Y73.168 F2400.000
G1 X93.310 Y72.674 F1440.000 E0.83318
G1 X93.420 Y72.614 E0.83560
G1 X93.942 Y72.327 E0.84718
G1 X94.640 Y72.148 E0.86117
G1 X95.360 Y72.148 E0.87517
G1 X96.058 Y72.327 E0.88916
G1 X96.690 Y72.674 E0.90316
G1 X97.215 Y73.168 E0.91716
G1 X97.601 Y73.776 E0.93115
G1 X97.824 Y74.461 E0.94515
G1 X97.869 Y75.180 E0.95914
G1 X97.734 Y75.888 E0.97314
G1 X97.427 Y76.540 E0.98714
G1 X96.968 Y77.096 E1.00113
G1 X96.385 Y77.519 E1.01513
G1 X95.715 Y77.784 E1.02912
G1 X95.000 Y77.875 E1.04312
G1 X94.285 Y77.784 E1.05711
G1 X93.615 Y77.519 E1.07111
G1 X93.032 Y77.096 E1.08511
G1 X92.573 Y76.540 E1.09910
G1 X92.266 Y75.888 E1.11310
G1 X92.131 Y75.180 E1.12709
G1 X92.176 Y74.461 E1.14109
G1 X92.399 Y73.776 E1.15508
G1 X92.738 Y73.241 E1.16739
G1 X93.234 Y73.539 F2400.000
G1 X93.653 Y73.146 F1440.000 E1.17855
G1 X94.156 Y72.869 E1.18971
G1 X94.713 Y72.727 E1.20086
G1 X95.287 Y72.727 E1.21202
G1 X95.844 Y72.869 E1.22318
G1 X96.347 Y73.146 E1.23433
G1 X96.766 Y73.539 E1.24549
G1 X97.073 Y74.024 E1.25665
G1 X97.251 Y74.571 E1.26781
G1 X97.287 Y75.144 E1.27896
G1 X97.179 Y75.708 E1.29012
G1 X96.935 Y76.228 E1.30128
G1 X96.569 Y76.670 E1.31243
G1 X96.104 Y77.008 E1.32359
G1 X95.570 Y77.220 E1.33475
G1 X95.000 Y77.292 E1.34590
G1 X94.430 Y77.220 E1.35706
G1 X93.896 Y77.008 E1.36822
G1 X93.398 Y76.631 E1.38034
G1 X93.065 Y76.228 E1.39050
G1 X92.821 Y75.708 E1.40166
G1 X92.713 Y75.144 E1.41281
G1 X92.749 Y74.571 E1.42397
G1 X92.927 Y74.024 E1.43513
G1 X93.188 Y73.613 E1.44460
G1 X93.796 Y73.659 F2400.000
G1 F1500.000 E1.04460
G92 E0
G1 X81.257 Y62.000 F2400.000
G1 X79.500 Y63.757
G1 X79.500 Y126.243
G1 X94.567 Y111.569
G1 F1500.000 E0.40000
G1 X95.433 Y111.569 F1440.000 E0.41684
G1 X96.273 Y111.785 E0.43367
G1 X97.032 Y112.203 E0.45051
G1 X97.664 Y112.796 E0.46734
G1 X98.129 Y113.528 E0.48418
G1 X98.397 Y114.352 E0.50101
G1 X98.451 Y115.217 E0.51785
G1 X98.289 Y116.069 E0.53468
G1 X97.920 Y116.853 E0.55152
G1 X97.367 Y117.521 E0.56835
G1 X96.666 Y118.030 E0.58519
G1 X95.860 Y118.349 E0.60202
G1 X95.000 Y118.458 E0.61886
G1 X94.140 Y118.349 E0.63569
G1 X93.334 Y118.030 E0.65252
G1 X92.633 Y117.521 E0.66936
G1 X92.080 Y116.853 E0.68619
G1 X91.711 Y116.069 E0.70303
G1 X91.549 Y115.217 E0.71986
G1 X91.603 Y114.352 E0.73670
G1 X91.871 Y113.528 E0.75353
G1 X92.336 Y112.796 E0.77037
G1 X92.968 Y112.202 E0.78720
G1 X93.727 Y111.785 E0.80404
G1 X94.482 Y111.591 E0.81919
G1 X94.640 Y112.148 F2400.000
G1 X95.360 Y112.148 F1440.000 E0.83318
G1 X96.058 Y112.327 E0.84718
G1 X96.690 Y112.674 E0.86117
G1 X97.215 Y113.168 E0.87517
G1 X97.601 Y113.776 E0.88917
G1 X97.824 Y114.461 E0.90316
G1 X97.869 Y115.181 E0.91716
G1 X97.734 Y115.888 E0.93115
G1 X97.427 Y116.540 E0.94515
G1 X96.968 Y117.096 E0.95914
G1 X96.385 Y117.519 E0.97314
G1 X95.715 Y117.784 E0.98714
G1 X95.000 Y117.875 E1.00113
G1 X94.285 Y117.784 E1.01513
G1 X93.615 Y117.519 E1.02912
G1 X93.032 Y117.096 E1.04312
G1 X92.573 Y116.540 E1.05711
G1 X92.266 Y115.888 E1.07111
G1 X92.131 Y115.181 E1.08511
G1 X92.176 Y114.461 E1.09910
G1 X92.399 Y113.776 E1.11310
G1 X92.785 Y113.168 E1.12710
G1 X93.310 Y112.674 E1.14109
G1 X93.942 Y112.327 E1.15509
G1 X94.556 Y112.170 E1.16740
G1 X94.713 Y112.726 F2400.000
G1 X95.287 Y112.726 F1440.000 E1.17855
G1 X95.794 Y112.857 E1.18871
G1 X96.347 Y113.146 E1.20084
G1 X96.793 Y113.583 E1.21297
G1 X97.073 Y114.024 E1.22312
G1 X97.251 Y114.571 E1.23428
G1 X97.287 Y115.144 E1.24544
G1 X97.179 Y115.708 E1.25659
G1 X96.935 Y116.228 E1.26775
G1 X96.569 Y116.670 E1.27890
G1 X96.104 Y117.008 E1.29006
G1 X95.570 Y117.220 E1.30122
G1 X95.000 Y117.292 E1.31238
G1 X94.430 Y117.220 E1.32353
G1 X93.896 Y117.008 E1.33469
G1 X93.431 Y116.670 E1.34585
G1 X93.065 Y116.228 E1.35700
G1 X92.821 Y115.708 E1.36816
G1 X92.713 Y115.144 E1.37932
G1 X92.749 Y114.571 E1.39047
G1 X92.927 Y114.024 E1.40163
G1 X93.234 Y113.539 E1.41279
G1 X93.653 Y113.146 E1.42394
G1 X94.156 Y112.869 E1.43510
G1 X94.629 Y112.748 E1.44457
G1 X95.041 Y113.198 F2400.000
G1 F1500.000 E1.04457
G92 E0
G1 X95.379 Y112.516 F2400.000
G1 X96.955 Y113.382
G1 X107.000 Y124.500
G1 X106.054 Y123.554
G1 F1500.000 E0.40000
G1 X83.946 Y123.554 F1440.000 E0.82938
G1 X83.946 Y66.446 E1.93855
G1 X106.054 Y66.446 E2.36793
G1 X106.054 Y123.467 E3.47542
G1 X83.368 Y65.868 F2400.000
G1 X106.632 Y65.868 F1440.000 E3.92727
G1 X106.632 Y124.132 E5.05892
G1 X83.368 Y124.132 E5.51077
G1 X83.368 Y65.955 E6.64073
G1 X82.789 Y65.289 F2400.000
G1 X107.211 Y65.289 F1008.000 E7.11506
G1 X107.211 Y124.711 E8.26918
G1 X82.789 Y124.711 E8.74351
G1 X82.789 Y65.376 E9.89594
G1 X83.290 Y65.579 F2400.000
G1 X96.193 Y71.332
G1 X91.727 Y66.866 F1440.000 E10.01939
G1 X90.904 Y66.866 E10.03548
G1 X95.189 Y71.150 E10.15391
G1 X94.396 Y71.180 E10.16942
G1 X90.081 Y66.866 E10.28868
G1 X89.257 Y66.866 E10.30477
G1 X93.740 Y71.349 E10.42869
G1 X93.177 Y71.609 E10.44081
G1 X88.434 Y66.866 E10.57192
G1 X87.611 Y66.866 E10.58801
G1 X92.661 Y71.916 E10.72759
G1 X92.236 Y72.314 E10.73898
G1 X86.787 Y66.866 E10.88958
G1 X85.964 Y66.866 E10.90568
G1 X91.860 Y72.762 E11.06866
G1 X91.541 Y73.266 E11.08032
G1 X85.141 Y66.866 E11.25723
G1 X84.366 Y66.914 E11.27241
G1 X91.320 Y73.868 E11.46462
G1 X91.171 Y74.543 E11.47813
G1 X84.366 Y67.737 E11.66624
G1 X84.366 Y68.561 E11.68234
G1 X91.146 Y75.341 E11.86974
G1 X91.424 Y76.442 E11.89195
G1 X84.366 Y69.384 E12.08704
G1 X84.366 Y70.207 E12.10313
G1 X105.634 Y91.476 E12.69102
G1 X105.634 Y92.299 E12.70711
G1 X84.366 Y71.031 E13.29500
G1 X84.366 Y71.854 E13.31110
G1 X105.634 Y93.123 E13.89899
G1 X105.634 Y93.946 E13.91508
G1 X84.366 Y72.677 E14.50297
G1 X84.366 Y73.501 E14.51906
G1 X105.634 Y94.769 E15.10695
G1 X105.634 Y95.593 E15.12304
G1 X84.366 Y74.324 E15.71093
G1 X84.366 Y75.147 E15.72702
G1 X105.634 Y96.416 E16.31491
G1 X105.634 Y97.239 E16.33101
G1 X84.366 Y75.971 E16.91890
G1 X84.366 Y76.794 E16.93499
G1 X105.634 Y98.063 E17.52288
G1 X105.634 Y98.886 E17.53897
G1 X84.366 Y77.617 E18.12686
G1 X84.366 Y78.441 E18.14295
G1 X105.634 Y99.709 E18.73084
G1 X105.634 Y100.533 E18.74693
G1 X84.366 Y79.264 E19.33482
G1 X84.366 Y80.087 E19.35092
G1 X105.634 Y101.356 E19.93881
G1 X105.634 Y102.179 E19.95490
G1 X84.366 Y80.911 E20.54279
G1 X84.366 Y81.734 E20.55888
G1 X105.634 Y103.003 E21.14677
G1 X105.634 Y103.826 E21.16286
G1 X84.366 Y82.558 E21.75075
G1 X84.366 Y83.381 E21.76684
G1 X105.634 Y104.650 E22.35473
G1 X105.634 Y105.473 E22.37083
G1 X84.366 Y84.204 E22.95872
G1 X84.366 Y85.028 E22.97481
G1 X105.634 Y106.296 E23.56270
G1 X105.634 Y107.120 E23.57879
G1 X84.366 Y85.851 E24.16668
G1 X84.366 Y86.674 E24.18277
G1 X105.634 Y107.943 E24.77066
G1 X105.634 Y108.766 E24.78675
G1 X84.366 Y87.498 E25.37464
G1 X84.366 Y88.321 E25.39074
G1 X105.634 Y109.590 E25.97863
G1 X105.634 Y110.413 E25.99472
G1 X84.366 Y89.144 E26.58261
G1 X84.366 Y89.968 E26.59870
G1 X105.634 Y111.236 E27.18659
G1 X105.634 Y112.060 E27.20268
G1 X84.366 Y90.791 E27.79057
G1 X84.366 Y91.614 E27.80666
G1 X105.634 Y112.883 E28.39455
G1 X105.634 Y113.706 E28.41065
G1 X84.366 Y92.438 E28.99854
G1 X84.366 Y93.261 E29.01463
G1 X105.634 Y114.530 E29.60252
G1 X105.634 Y115.353 E29.61861
G1 X84.366 Y94.084 E30.20650
G1 X84.366 Y94.908 E30.22259
G1 X105.634 Y116.176 E30.81048
G1 X105.634 Y117.000 E30.82657
G1 X84.366 Y95.731 E31.41446
G1 X84.366 Y96.554 E31.43056
G1 X105.634 Y117.823 E32.01845
G1 X105.634 Y118.646 E32.03454
G1 X84.366 Y97.378 E32.62243
G1 X84.366 Y98.201 E32.63852
G1 X105.634 Y119.470 E33.22641
G1 X98.595 Y123.134 F2400.000
G1 X94.246 Y118.785 F1440.000 E33.34662
G1 X95.146 Y118.862 E33.36428
G1 X99.419 Y123.134 E33.48237
G1 X100.242 Y123.134 E33.49846
G1 X95.877 Y118.770 E33.61911
G1 X96.484 Y118.553 E33.63170
G1 X101.065 Y123.134 E33.75833
G1 X101.889 Y123.134 E33.77442
G1 X97.035 Y118.280 E33.90859
G1 X97.512 Y117.934 E33.92011
G1 X102.712 Y123.134 E34.06386
G1 X103.536 Y123.134 E34.07995
G1 X97.916 Y117.515 E34.23528
G1 X98.285 Y117.061 E34.24672
G1 X104.359 Y123.134 E34.41460
G1 X105.182 Y123.134 E34.43070
G1 X98.549 Y116.501 E34.61405
G1 X98.751 Y115.880 E34.62681
G1 X105.634 Y122.763 E34.81707
G1 X105.634 Y121.940 E34.83316
G1 X98.868 Y115.174 E35.02017
G1 X98.813 Y114.295 E35.03738
G1 X105.634 Y121.116 E35.22592
G1 X105.634 Y120.293 E35.24202
G1 X98.202 Y112.861 E35.44745
G1 X97.105 Y111.764 F2400.000
G1 X84.366 Y99.024 F1440.000 E35.79959
G1 X84.366 Y99.848 E35.81568
G1 X95.731 Y111.213 E36.12982
G1 X94.845 Y111.150 E36.14719
G1 X84.366 Y100.671 E36.43684
G1 X84.366 Y101.494 E36.45293
G1 X94.122 Y111.251 E36.72260
G1 X93.487 Y111.439 E36.73555
G1 X84.366 Y102.318 E36.98766
G1 X84.366 Y103.141 E37.00376
G1 X92.955 Y111.731 E37.24118
G1 X92.483 Y112.082 E37.25268
G1 X84.366 Y103.964 E37.47706
G1 X84.366 Y104.788 E37.49315
G1 X92.059 Y112.481 E37.70580
G1 X91.727 Y112.972 E37.71739
G1 X84.366 Y105.611 E37.92086
G1 X84.366 Y106.435 E37.93696
G1 X91.437 Y113.506 E38.13242
G1 X91.235 Y114.128 E38.14520
G1 X84.366 Y107.258 E38.33508
G1 X84.366 Y108.081 E38.35118
G1 X91.151 Y114.866 E38.53873
G1 X91.227 Y115.766 E38.55636
G1 X84.366 Y108.905 E38.74601
G1 X84.366 Y109.728 E38.76210
G1 X91.755 Y117.117 E38.96634
G1 X92.793 Y118.155 F2400.000
G1 X97.772 Y123.134 F1440.000 E39.10397
G1 X96.949 Y123.134 E39.12006
G1 X84.366 Y110.551 E39.46787
G1 X84.366 Y111.375 E39.48396
G1 X96.125 Y123.134 E39.80901
G1 X95.302 Y123.134 E39.82511
G1 X84.366 Y112.198 E40.12740
G1 X84.366 Y113.021 E40.14349
G1 X94.479 Y123.134 E40.42303
G1 X93.655 Y123.134 E40.43912
G1 X84.366 Y113.845 E40.69590
G1 X84.366 Y114.668 E40.71199
G1 X92.832 Y123.134 E40.94601
G1 X92.009 Y123.134 E40.96210
G1 X84.366 Y115.491 E41.17337
G1 X84.366 Y116.315 E41.18946
G1 X91.185 Y123.134 E41.37796
G1 X90.362 Y123.134 E41.39405
G1 X84.366 Y117.138 E41.55980
G1 X84.366 Y117.961 E41.57589
G1 X89.539 Y123.134 E41.71888
G1 X88.715 Y123.134 E41.73497
G1 X84.366 Y118.785 E41.85520
G1 X84.366 Y119.608 E41.87129
G1 X87.892 Y123.134 E41.96876
G1 X87.069 Y123.134 E41.98485
G1 X84.366 Y120.431 E42.05957
G1 X84.366 Y121.255 E42.07566
G1 X86.245 Y123.134 E42.12761
G1 X85.422 Y123.134 E42.14371
G1 X84.366 Y122.078 E42.17290
G1 X84.366 Y122.901 E42.18899
G1 X84.599 Y123.134 E42.19543
G1 X105.634 Y90.653 F2400.000
G1 X93.547 Y78.565 F1440.000 E42.52954
G1 X94.640 Y78.835 E42.55154
G1 X105.634 Y89.829 E42.85543
G1 X105.634 Y89.006 E42.87153
G1 X95.452 Y78.823 E43.15298
G1 X96.141 Y78.689 E43.16670
G1 X105.634 Y88.183 E43.42912
G1 X105.634 Y87.359 E43.44521
G1 X96.731 Y78.455 E43.69132
G1 X97.234 Y78.136 E43.70298
G1 X105.634 Y86.536 E43.93517
G1 X105.634 Y85.713 E43.95127
G1 X97.699 Y77.777 E44.17061
G1 X98.072 Y77.327 E44.18204
G1 X105.634 Y84.889 E44.39108
G1 X105.634 Y84.066 E44.40717
G1 X98.395 Y76.827 E44.60727
G1 X98.659 Y76.267 E44.61936
G1 X105.634 Y83.243 E44.81217
G1 X105.634 Y82.419 E44.82827
G1 X98.806 Y75.591 E45.01700
G1 X98.845 Y74.807 E45.03235
G1 X105.634 Y81.596 E45.22000
G1 X105.634 Y80.773 E45.23609
G1 X98.656 Y73.795 E45.42897
G1 X105.634 Y79.949 F2400.000
G1 X92.551 Y66.866 F1440.000 E45.79062
G1 X93.374 Y66.866 E45.80671
G1 X105.634 Y79.126 E46.14559
G1 X105.634 Y78.303 E46.16169
G1 X94.197 Y66.866 E46.47781
G1 X95.021 Y66.866 E46.49391
G1 X105.634 Y77.479 E46.78728
G1 X105.634 Y76.656 E46.80337
G1 X95.844 Y66.866 E47.07398
G1 X96.668 Y66.866 E47.09007
G1 X105.634 Y75.832 E47.33792
G1 X105.634 Y75.009 E47.35402
G1 X97.491 Y66.866 E47.57911
G1 X98.314 Y66.866 E47.59520
G1 X105.634 Y74.186 E47.79754
G1 X105.634 Y73.362 E47.81363
G1 X99.138 Y66.866 E47.99321
G1 X99.961 Y66.866 E48.00930
G1 X105.634 Y72.539 E48.16612
G1 X105.634 Y71.716 E48.18221
G1 X100.784 Y66.866 E48.31628
G1 X101.608 Y66.866 E48.33237
G1 X105.634 Y70.892 E48.44367
G1 X105.634 Y70.069 E48.45976
G1 X102.431 Y66.866 E48.54831
G1 X103.254 Y66.866 E48.56440
G1 X105.634 Y69.246 E48.63019
G1 X105.634 Y68.422 E48.64628
G1 X104.078 Y66.866 E48.68931
G1 X104.901 Y66.866 E48.70540
G1 X105.634 Y67.599 E48.72567
M106 S94
G1 F1500.000 E48.32567
G92 E0
G1 Z0.600 F2400.000
G1 X97.812 Y72.674
G1 F1500.000 E0.40000
G1 X98.302 Y73.446 F2400.000 E0.42010
G1 X98.380 Y73.686 E0.42563
G1 X98.585 Y74.316 E0.44020
G1 X98.642 Y75.229 E0.46030
G1 X98.471 Y76.128 E0.48040
G1 X98.363 Y76.356 E0.48593
G1 X98.081 Y76.955 E0.50050
G1 X97.498 Y77.660 E0.52060
G1 X96.758 Y78.198 E0.54070
G1 X95.908 Y78.535 E0.56080
G1 X95.425 Y78.596 E0.57147
G1 X95.425 Y79.062 E0.58173
G1 X93.242 Y78.198 E0.63333
G1 X92.502 Y77.660 E0.65343
G1 X91.919 Y76.955 E0.67353
G1 X91.529 Y76.128 E0.69363
G1 X91.358 Y75.229 E0.71373
G1 X91.415 Y74.316 E0.73383
G1 X91.698 Y73.446 E0.75393
G1 X92.188 Y72.674 E0.77402
G1 X92.855 Y72.048 E0.79412
G1 X93.657 Y71.607 E0.81422
G1 X94.543 Y71.380 E0.83432
G1 X95.457 Y71.380 E0.85442
G1 X96.343 Y71.607 E0.87452
G1 X97.145 Y72.048 E0.89462
G1 X97.740 Y72.607 E0.91256
G1 X97.303 Y73.094 F2400.000
G1 X97.705 Y73.727 F2400.000 E0.92903
G1 X97.757 Y73.888 E0.93275
G1 X97.937 Y74.440 E0.94549
G1 X97.984 Y75.188 E0.96196
G1 X97.843 Y75.924 E0.97843
G1 X97.771 Y76.077 E0.98214
G1 X97.524 Y76.602 E0.99489
G1 X97.046 Y77.179 E1.01136
G1 X96.440 Y77.620 E1.02782
G1 X95.743 Y77.896 E1.04429
G1 X94.771 Y78.019 E1.06583
G1 X94.771 Y78.099 E1.06761
G1 X93.560 Y77.620 E1.09623
G1 X92.954 Y77.179 E1.11269
G1 X92.476 Y76.602 E1.12916
G1 X92.157 Y75.924 E1.14562
G1 X92.016 Y75.188 E1.16209
G1 X92.063 Y74.440 E1.17856
